icon-themes/sifr_svg/cmd/sc_errorcellstyles.svg

<svg viewBox="0 0 16 16" xmlns="http://www.w3.org/2000/svg"><path d="m5 1-4 4v6l4 4h6l4-4v-6l-4-4zm2 2h2v7h-2zm0 8h2v2h-2z" fill="#555753"/></svg>

<svg xmlns="http://www.w3.org/2000/svg" viewBox="0 0 16 16">
  <path
     style="fill:#555753"
     d="M 5 1 L 1 5 L 1 11 L 5 15 L 11 15 L 15 11 L 15 5 L 11 1 L 5 1 z M 7 3 L 9 3 L 9 10 L 7 10 L 7 3 z M 7 11 L 9 11 L 9 13 L 7 13 L 7 11 z "
     />
</svg>
